; generated by Slic3r 1.3.1-dev on 2020-03-11 at 10:24:10

; external perimeters extrusion width = 0.40mm (1.43mm^3/s)
; perimeters extrusion width = 0.40mm (1.43mm^3/s)
; infill extrusion width = 0.40mm (1.43mm^3/s)
; solid infill extrusion width = 0.40mm (1.43mm^3/s)
; top infill extrusion width = 0.40mm (1.07mm^3/s)

M107
G28 ; home all axes
G1 Z15 F2000 ; lift nozzle

; Filament gcode

G21 ; set units to millimeters
G90 ; use absolute coordinates
G1 Z10.300 F1800.000
G1 X34.302 Y41.626 F1800.000
G1 F1200
G1 X35.209 Y40.945 0.00000
G1 X35.760 Y40.583 0.00000
G1 X36.250 Y40.290 0.00000
G1 X37.049 Y39.865 0.00000
G1 X37.508 Y39.647 0.00000
G1 X38.575 Y39.194 0.00000
G1 X44.788 Y36.803 0.00000
G1 X46.068 Y36.399 0.00000
G1 X46.839 Y36.198 0.00000
G1 X47.813 Y35.995 0.00000
G1 X49.304 Y35.794 0.00000
G1 X50.072 Y35.744 0.00000
G1 X50.958 Y35.724 0.00000
G1 X62.387 Y35.910 0.00000
G1 X62.939 Y35.932 0.00000
G1 X63.563 Y35.993 0.00000
G1 X63.967 Y36.060 0.00000
G1 X64.872 Y36.295 0.00000
G1 X65.167 Y36.396 0.00000
G1 X66.006 Y36.751 0.00000
G1 X66.980 Y37.361 0.00000
G1 X67.497 Y37.769 0.00000
G1 X68.225 Y38.503 0.00000
G1 X68.534 Y38.898 0.00000
G1 X69.057 Y39.730 0.00000
G1 X69.310 Y40.253 0.00000
G1 X69.529 Y40.822 0.00000
G1 X69.729 Y41.502 0.00000
G1 X69.799 Y41.797 0.00000
G1 X69.941 Y42.663 0.00000
G1 X70.000 Y43.329 0.00000
G1 X70.013 Y44.644 0.00000
G1 X69.966 Y45.395 0.00000
G1 X68.982 Y51.742 0.00000
G1 X68.816 Y52.510 0.00000
G1 X67.611 Y54.916 0.00000
G1 X67.299 Y55.287 0.00000
G1 X66.909 Y55.703 0.00000
G1 X63.979 Y58.548 0.00000
G1 X63.299 Y59.124 0.00000
G1 X62.591 Y59.655 0.00000
G1 X61.953 Y60.083 0.00000
G1 X61.208 Y60.527 0.00000
G1 X60.503 Y60.906 0.00000
G1 X59.829 Y61.232 0.00000
G1 X58.373 Y61.837 0.00000
G1 X57.328 Y62.208 0.00000
G1 X55.368 Y62.814 0.00000
G1 X54.104 Y63.174 0.00000
G1 X52.489 Y63.595 0.00000
G1 X51.095 Y63.904 0.00000
G1 X50.033 Y64.102 0.00000
G1 X48.941 Y64.264 0.00000
G1 X47.824 Y64.388 0.00000
G1 X46.378 Y64.469 0.00000
G1 X45.446 Y64.469 0.00000
G1 X44.296 Y64.415 0.00000
G1 X43.526 Y64.344 0.00000
G1 X42.506 Y64.201 0.00000
G1 X41.728 Y64.057 0.00000
G1 X40.835 Y63.846 0.00000
G1 X39.705 Y63.514 0.00000
G1 X39.052 Y63.281 0.00000
G1 X38.506 Y63.059 0.00000
G1 X36.640 Y61.867 0.00000
G1 X35.751 Y60.892 0.00000
G1 X34.317 Y58.924 0.00000
G1 X31.155 Y53.982 0.00000
G1 X30.854 Y53.458 0.00000
G1 X30.738 Y53.231 0.00000
G1 X30.044 Y50.558 0.00000
G1 X30.100 Y49.384 0.00000
G1 X30.121 Y49.232 0.00000
G1 X30.703 Y47.337 0.00000
G1 X32.338 Y43.997 0.00000
G1 X33.384 Y42.473 0.00000
G1 X33.936 Y41.936 0.00000
G1 X34.256 Y41.664 0.00000
G1 X61.536 Y50.841 F1800.000
G1 F1200
G1 X61.184 Y51.149 0.00000
G1 X60.212 Y52.112 0.00000
G1 X59.725 Y52.640 0.00000
G1 X59.079 Y53.262 0.00000
G1 X58.798 Y53.495 0.00000
G1 X58.317 Y53.852 0.00000
G1 X57.567 Y54.307 0.00000
G1 X56.760 Y54.712 0.00000
G1 X55.936 Y55.053 0.00000
G1 X55.097 Y55.355 0.00000
G1 X53.304 Y55.909 0.00000
G1 X52.193 Y56.225 0.00000
G1 X50.803 Y56.588 0.00000
G1 X49.373 Y56.900 0.00000
G1 X48.463 Y57.058 0.00000
G1 X47.125 Y57.215 0.00000
G1 X46.359 Y57.258 0.00000
G1 X45.507 Y57.262 0.00000
G1 X44.758 Y57.223 0.00000
G1 X43.711 Y57.096 0.00000
G1 X43.163 Y56.994 0.00000
G1 X42.547 Y56.846 0.00000
G1 X41.865 Y56.638 0.00000
G1 X41.552 Y56.514 0.00000
G1 X41.343 Y55.945 0.00000
G1 X41.047 Y55.283 0.00000
G1 X40.569 Y54.883 0.00000
G1 X40.605 Y54.476 0.00000
G1 X40.493 Y54.039 0.00000
G1 X40.299 Y53.609 0.00000
G1 X40.088 Y53.296 0.00000
G1 X39.958 Y53.049 0.00000
G1 X39.486 Y52.440 0.00000
G1 X38.938 Y51.866 0.00000
G1 X38.478 Y51.450 0.00000
G1 X38.004 Y50.843 0.00000
G1 X37.377 Y50.201 0.00000
G1 X37.961 Y49.288 0.00000
G1 X38.500 Y48.383 0.00000
G1 X39.039 Y47.296 0.00000
G1 X39.027 Y47.077 0.00000
G1 X39.687 Y46.629 0.00000
G1 X40.365 Y46.264 0.00000
G1 X41.380 Y45.832 0.00000
G1 X44.374 Y44.695 0.00000
G1 X45.170 Y44.412 0.00000
G1 X46.445 Y43.876 0.00000
G1 X47.277 Y43.567 0.00000
G1 X47.906 Y43.367 0.00000
G1 X48.628 Y43.179 0.00000
G1 X49.158 Y43.075 0.00000
G1 X49.848 Y42.980 0.00000
G1 X50.317 Y42.946 0.00000
G1 X51.012 Y42.931 0.00000
G1 X51.887 Y42.976 0.00000
G1 X53.023 Y43.114 0.00000
G1 X55.212 Y43.464 0.00000
G1 X56.963 Y43.573 0.00000
G1 X57.926 Y43.564 0.00000
G1 X58.951 Y43.507 0.00000
G1 X60.155 Y43.392 0.00000
G1 X61.298 Y43.173 0.00000
G1 X61.700 Y43.134 0.00000
G1 X62.257 Y43.117 0.00000
G1 X62.641 Y43.150 0.00000
G1 X62.710 Y43.175 0.00000
G1 X62.772 Y43.405 0.00000
G1 X62.808 Y43.811 0.00000
G1 X62.803 Y44.507 0.00000
G1 X61.997 Y45.193 0.00000
G1 X61.847 Y45.353 0.00000
G1 X61.552 Y45.830 0.00000
G1 X61.354 Y46.341 0.00000
G1 X61.103 Y47.261 0.00000
G1 X61.070 Y47.442 0.00000
G1 X60.930 Y47.804 0.00000
G1 X60.781 Y48.289 0.00000
G1 X60.708 Y48.820 0.00000
G1 X60.699 Y49.285 0.00000
G1 X61.063 Y50.401 0.00000
G1 X61.492 Y50.800 0.00000
G1 X62.070 Y50.820 F1800.000
G1 F1200
G1 X61.413 Y51.395 0.00000
G1 X60.453 Y52.345 0.00000
G1 X59.965 Y52.875 0.00000
G1 X59.303 Y53.513 0.00000
G1 X59.005 Y53.759 0.00000
G1 X58.508 Y54.129 0.00000
G1 X57.731 Y54.600 0.00000
G1 X56.897 Y55.018 0.00000
G1 X56.058 Y55.366 0.00000
G1 X55.204 Y55.673 0.00000
G1 X53.400 Y56.231 0.00000
G1 X52.282 Y56.549 0.00000
G1 X50.882 Y56.915 0.00000
G1 X49.438 Y57.230 0.00000
G1 X48.513 Y57.390 0.00000
G1 X47.151 Y57.550 0.00000
G1 X46.369 Y57.594 0.00000
G1 X45.499 Y57.597 0.00000
G1 X44.729 Y57.557 0.00000
G1 X43.661 Y57.427 0.00000
G1 X43.093 Y57.322 0.00000
G1 X42.459 Y57.170 0.00000
G1 X41.754 Y56.955 0.00000
G1 X41.289 Y56.771 0.00000
G1 X41.032 Y56.072 0.00000
G1 X40.772 Y55.490 0.00000
G1 X40.453 Y55.223 0.00000
G1 X40.150 Y55.126 0.00000
G1 X40.238 Y54.809 0.00000
G1 X40.266 Y54.503 0.00000
G1 X40.175 Y54.151 0.00000
G1 X40.005 Y53.773 0.00000
G1 X39.800 Y53.469 0.00000
G1 X39.675 Y53.231 0.00000
G1 X39.231 Y52.659 0.00000
G1 X38.704 Y52.107 0.00000
G1 X38.231 Y51.680 0.00000
G1 X37.750 Y51.062 0.00000
G1 X37.283 Y50.573 0.00000
G1 X36.944 Y50.256 0.00000
G1 X37.675 Y49.111 0.00000
G1 X38.205 Y48.223 0.00000
G1 X38.699 Y47.225 0.00000
G1 X38.683 Y46.917 0.00000
G1 X39.011 Y46.668 0.00000
G1 X39.516 Y46.340 0.00000
G1 X40.220 Y45.961 0.00000
G1 X41.255 Y45.521 0.00000
G1 X44.259 Y44.380 0.00000
G1 X45.049 Y44.099 0.00000
G1 X46.322 Y43.563 0.00000
G1 X47.168 Y43.249 0.00000
G1 X47.813 Y43.045 0.00000
G1 X48.554 Y42.852 0.00000
G1 X49.102 Y42.744 0.00000
G1 X49.813 Y42.646 0.00000
G1 X50.301 Y42.611 0.00000
G1 X51.016 Y42.595 0.00000
G1 X51.917 Y42.642 0.00000
G1 X53.070 Y42.781 0.00000
G1 X55.249 Y43.130 0.00000
G1 X56.972 Y43.237 0.00000
G1 X57.915 Y43.228 0.00000
G1 X58.926 Y43.172 0.00000
G1 X60.107 Y43.060 0.00000
G1 X61.250 Y42.840 0.00000
G1 X61.679 Y42.799 0.00000
G1 X62.267 Y42.781 0.00000
G1 X62.713 Y42.820 0.00000
G1 X62.889 Y42.882 0.00000
G1 X62.988 Y42.957 0.00000
G1 X63.012 Y43.006 0.00000
G1 X63.104 Y43.346 0.00000
G1 X63.144 Y43.797 0.00000
G1 X63.138 Y44.575 0.00000
G1 X63.119 Y44.635 0.00000
G1 X63.029 Y44.755 0.00000
G1 X62.229 Y45.437 0.00000
G1 X62.114 Y45.558 0.00000
G1 X61.854 Y45.980 0.00000
G1 X61.673 Y46.446 0.00000
G1 X61.431 Y47.335 0.00000
G1 X61.395 Y47.533 0.00000
G1 X61.248 Y47.914 0.00000
G1 X61.110 Y48.362 0.00000
G1 X61.043 Y48.846 0.00000
G1 X61.035 Y49.235 0.00000
G1 X61.355 Y50.214 0.00000
G1 X61.790 Y50.618 0.00000
G1 X62.021 Y50.785 0.00000
G1 X62.515 Y50.823 F1800.000
G1 F1200
G1 X62.344 Y51.026 0.00000
G1 X61.642 Y51.640 0.00000
G1 X60.695 Y52.578 0.00000
G1 X60.205 Y53.109 0.00000
G1 X59.527 Y53.763 0.00000
G1 X59.213 Y54.024 0.00000
G1 X58.699 Y54.405 0.00000
G1 X58.430 Y54.577 0.00000
G1 X57.894 Y54.894 0.00000
G1 X57.034 Y55.325 0.00000
G1 X56.179 Y55.679 0.00000
G1 X55.310 Y55.992 0.00000
G1 X53.495 Y56.553 0.00000
G1 X52.370 Y56.873 0.00000
G1 X50.960 Y57.241 0.00000
G1 X49.502 Y57.559 0.00000
G1 X48.564 Y57.721 0.00000
G1 X47.754 Y57.827 0.00000
G1 X47.177 Y57.884 0.00000
G1 X46.379 Y57.929 0.00000
G1 X45.491 Y57.933 0.00000
G1 X44.700 Y57.892 0.00000
G1 X43.610 Y57.759 0.00000
G1 X43.023 Y57.651 0.00000
G1 X42.370 Y57.494 0.00000
G1 X41.643 Y57.272 0.00000
G1 X41.025 Y57.028 0.00000
G1 X40.721 Y56.198 0.00000
G1 X40.497 Y55.698 0.00000
G1 X40.288 Y55.523 0.00000
G1 X39.765 Y55.354 0.00000
G1 X39.768 Y55.246 0.00000
G1 X39.907 Y54.749 0.00000
G1 X39.926 Y54.531 0.00000
G1 X39.857 Y54.262 0.00000
G1 X39.711 Y53.937 0.00000
G1 X39.511 Y53.641 0.00000
G1 X39.392 Y53.414 0.00000
G1 X38.977 Y52.878 0.00000
G1 X38.470 Y52.348 0.00000
G1 X37.984 Y51.909 0.00000
G1 X37.495 Y51.282 0.00000
G1 X37.047 Y50.811 0.00000
G1 X36.654 Y50.445 0.00000
G1 X36.580 Y50.300 0.00000
G1 X36.589 Y50.188 0.00000
G1 X37.390 Y48.935 0.00000
G1 X37.910 Y48.062 0.00000
G1 X38.359 Y47.155 0.00000
G1 X38.345 Y46.890 0.00000
G1 X38.288 Y46.821 0.00000
G1 X38.817 Y46.394 0.00000
G1 X39.344 Y46.051 0.00000
G1 X40.074 Y45.658 0.00000
G1 X41.130 Y45.209 0.00000
G1 X44.143 Y44.065 0.00000
G1 X44.927 Y43.786 0.00000
G1 X46.198 Y43.251 0.00000
G1 X47.059 Y42.932 0.00000
G1 X47.720 Y42.722 0.00000
G1 X48.479 Y42.525 0.00000
G1 X49.047 Y42.413 0.00000
G1 X49.778 Y42.312 0.00000
G1 X50.286 Y42.276 0.00000
G1 X51.020 Y42.259 0.00000
G1 X51.947 Y42.307 0.00000
G1 X53.117 Y42.449 0.00000
G1 X55.286 Y42.796 0.00000
G1 X56.981 Y42.901 0.00000
G1 X57.904 Y42.893 0.00000
G1 X58.901 Y42.838 0.00000
G1 X60.060 Y42.727 0.00000
G1 X61.202 Y42.508 0.00000
G1 X61.657 Y42.464 0.00000
G1 X62.276 Y42.445 0.00000
G1 X62.785 Y42.489 0.00000
G1 X63.051 Y42.583 0.00000
G1 X63.217 Y42.710 0.00000
G1 X63.327 Y42.886 0.00000
G1 X63.435 Y43.286 0.00000
G1 X63.480 Y43.784 0.00000
G1 X63.474 Y44.628 0.00000
G1 X63.421 Y44.790 0.00000
G1 X63.276 Y44.986 0.00000
G1 X62.382 Y45.764 0.00000
G1 X62.156 Y46.130 0.00000
G1 X61.993 Y46.551 0.00000
G1 X61.758 Y47.409 0.00000
G1 X61.720 Y47.624 0.00000
G1 X61.565 Y48.024 0.00000
G1 X61.439 Y48.434 0.00000
G1 X61.379 Y48.872 0.00000
G1 X61.372 Y49.185 0.00000
G1 X61.647 Y50.027 0.00000
G1 X62.003 Y50.358 0.00000
G1 X62.208 Y50.505 0.00000
G1 X62.473 Y50.780 0.00000
G1 X62.264 Y50.910 F1800.000
G1 X60.979 Y50.887 F1800.000
G1 F1200
G1 X61.070 Y50.796 0.00000
G1 X60.807 Y50.552 0.00000
G1 X60.397 Y49.299 0.00000
G1 X60.402 Y49.091 0.00000
G1 X54.181 Y55.312 0.00000
G1 X53.173 Y55.623 0.00000
G1 X52.070 Y55.937 0.00000
G1 X50.869 Y56.250 0.00000
G1 X61.166 Y45.953 0.00000
G1 X61.286 Y45.644 0.00000
G1 X61.615 Y45.112 0.00000
G1 X61.802 Y44.914 0.00000
G1 X62.504 Y44.315 0.00000
G1 X62.508 Y43.789 0.00000
G1 X62.476 Y43.434 0.00000
G1 X62.283 Y43.417 0.00000
G1 X61.757 Y43.433 0.00000
G1 X61.252 Y43.495 0.00000
G1 X47.927 Y56.820 0.00000
G1 X47.063 Y56.916 0.00000
G1 X46.313 Y56.958 0.00000
G1 X45.415 Y56.958 0.00000
G1 X58.541 Y43.832 0.00000
G1 X57.972 Y43.864 0.00000
G1 X56.990 Y43.873 0.00000
G1 X56.178 Y43.822 0.00000
G1 X43.283 Y56.717 0.00000
G1 X42.599 Y56.557 0.00000
G1 X41.780 Y56.293 0.00000
G1 X41.660 Y55.967 0.00000
G1 X54.050 Y43.577 0.00000
G1 X53.012 Y43.411 0.00000
G1 X51.969 Y43.284 0.00000
G1 X40.881 Y54.373 0.00000
G1 X40.775 Y53.963 0.00000
G1 X40.558 Y53.481 0.00000
G1 X40.341 Y53.160 0.00000
G1 X40.206 Y52.902 0.00000
G1 X40.107 Y52.774 0.00000
G1 X49.552 Y43.329 0.00000
G1 X48.739 Y43.471 0.00000
G1 X48.034 Y43.654 0.00000
G1 X47.422 Y43.848 0.00000
G1 X46.604 Y44.152 0.00000
G1 X46.174 Y44.333 0.00000
G1 X38.984 Y51.523 0.00000
G1 X38.689 Y51.256 0.00000
G1 X38.222 Y50.657 0.00000
G1 X37.854 Y50.281 0.00000
G1 X42.323 Y45.811 0.00000
G1 X58.816 Y53.049 F1800.000
G1 F1200
G1 X59.806 Y52.060 0.00000
G1 X59.520 Y52.369 0.00000
G1 X58.888 Y52.978 0.00000
G1 Z10.500 F1800.000
G1 X61.017 Y51.260 F1800.000
G1 F1200
G1 X60.149 Y52.120 0.00000
G1 X59.695 Y52.609 0.00000
G1 X59.058 Y53.223 0.00000
G1 X58.301 Y53.811 0.00000
G1 X57.563 Y54.260 0.00000
G1 X56.739 Y54.674 0.00000
G1 X55.946 Y55.003 0.00000
G1 X55.412 Y55.200 0.00000
G1 X54.260 Y55.578 0.00000
G1 X52.199 Y56.179 0.00000
G1 X50.331 Y56.655 0.00000
G1 X48.862 Y56.947 0.00000
G1 X47.669 Y57.117 0.00000
G1 X47.043 Y57.178 0.00000
G1 X46.140 Y57.223 0.00000
G1 X45.305 Y57.213 0.00000
G1 X44.274 Y57.133 0.00000
G1 X43.522 Y57.019 0.00000
G1 X42.551 Y56.802 0.00000
G1 X41.879 Y56.597 0.00000
G1 X41.520 Y56.456 0.00000
G1 X41.188 Y55.608 0.00000
G1 X40.969 Y55.182 0.00000
G1 X40.662 Y54.926 0.00000
G1 X40.541 Y54.870 0.00000
G1 X40.627 Y54.492 0.00000
G1 X40.536 Y54.018 0.00000
G1 X40.274 Y53.534 0.00000
G1 X39.975 Y53.081 0.00000
G1 X39.603 Y52.595 0.00000
G1 X39.022 Y51.973 0.00000
G1 X38.535 Y51.499 0.00000
G1 X38.382 Y51.283 0.00000
G1 X37.977 Y50.795 0.00000
G1 X37.604 Y50.406 0.00000
G1 X38.670 Y48.677 0.00000
G1 X39.407 Y47.248 0.00000
G1 X39.340 Y46.904 0.00000
G1 X39.867 Y46.574 0.00000
G1 X40.380 Y46.304 0.00000
G1 X41.419 Y45.863 0.00000
G1 X45.036 Y44.504 0.00000
G1 X46.477 Y43.897 0.00000
G1 X47.319 Y43.580 0.00000
G1 X48.017 Y43.359 0.00000
G1 X48.694 Y43.183 0.00000
G1 X49.270 Y43.070 0.00000
G1 X49.812 Y42.995 0.00000
G1 X50.518 Y42.945 0.00000
G1 X51.180 Y42.945 0.00000
G1 X51.767 Y42.977 0.00000
G1 X52.642 Y43.076 0.00000
G1 X53.769 Y43.241 0.00000
G1 X55.202 Y43.486 0.00000
G1 X57.019 Y43.600 0.00000
G1 X57.944 Y43.601 0.00000
G1 X59.232 Y43.529 0.00000
G1 X60.270 Y43.430 0.00000
G1 X61.244 Y43.243 0.00000
G1 X61.574 Y43.211 0.00000
G1 X62.369 Y43.197 0.00000
G1 X62.508 Y43.216 0.00000
G1 X62.634 Y43.520 0.00000
G1 X62.664 Y43.650 0.00000
G1 X62.674 Y44.560 0.00000
G1 X62.276 Y44.883 0.00000
G1 X61.948 Y45.084 0.00000
G1 X61.640 Y45.349 0.00000
G1 X61.452 Y45.548 0.00000
G1 X61.233 Y45.893 0.00000
G1 X61.012 Y46.380 0.00000
G1 X60.898 Y46.778 0.00000
G1 X60.634 Y47.423 0.00000
G1 X60.435 Y47.729 0.00000
G1 X60.269 Y48.092 0.00000
G1 X60.144 Y48.505 0.00000
G1 X60.081 Y48.888 0.00000
G1 X60.065 Y49.638 0.00000
G1 X60.248 Y50.235 0.00000
G1 X60.453 Y50.736 0.00000
G1 X60.973 Y51.220 0.00000
G1 X61.559 Y51.247 F1800.000
G1 F1200
G1 X61.371 Y51.413 0.00000
G1 X60.405 Y52.368 0.00000
G1 X59.950 Y52.859 0.00000
G1 X59.297 Y53.490 0.00000
G1 X59.002 Y53.734 0.00000
G1 X58.501 Y54.107 0.00000
G1 X57.737 Y54.572 0.00000
G1 X56.888 Y54.998 0.00000
G1 X56.076 Y55.336 0.00000
G1 X55.530 Y55.537 0.00000
G1 X54.365 Y55.920 0.00000
G1 X52.293 Y56.523 0.00000
G1 X50.410 Y57.004 0.00000
G1 X48.922 Y57.299 0.00000
G1 X47.711 Y57.472 0.00000
G1 X47.069 Y57.534 0.00000
G1 X46.147 Y57.580 0.00000
G1 X45.292 Y57.570 0.00000
G1 X44.230 Y57.487 0.00000
G1 X43.456 Y57.371 0.00000
G1 X42.460 Y57.148 0.00000
G1 X41.761 Y56.935 0.00000
G1 X41.245 Y56.731 0.00000
G1 X40.862 Y55.755 0.00000
G1 X40.685 Y55.410 0.00000
G1 X40.469 Y55.230 0.00000
G1 X40.126 Y55.088 0.00000
G1 X40.262 Y54.486 0.00000
G1 X40.196 Y54.139 0.00000
G1 X39.967 Y53.718 0.00000
G1 X39.684 Y53.288 0.00000
G1 X39.330 Y52.826 0.00000
G1 X38.767 Y52.223 0.00000
G1 X38.263 Y51.732 0.00000
G1 X38.099 Y51.500 0.00000
G1 X37.711 Y51.033 0.00000
G1 X37.151 Y50.461 0.00000
G1 X38.359 Y48.501 0.00000
G1 X39.033 Y47.195 0.00000
G1 X38.945 Y46.745 0.00000
G1 X39.028 Y46.682 0.00000
G1 X39.692 Y46.262 0.00000
G1 X40.227 Y45.981 0.00000
G1 X41.287 Y45.531 0.00000
G1 X44.904 Y44.172 0.00000
G1 X46.345 Y43.565 0.00000
G1 X47.202 Y43.242 0.00000
G1 X47.918 Y43.016 0.00000
G1 X48.615 Y42.834 0.00000
G1 X49.212 Y42.717 0.00000
G1 X49.774 Y42.640 0.00000
G1 X50.505 Y42.588 0.00000
G1 X51.190 Y42.588 0.00000
G1 X51.797 Y42.621 0.00000
G1 X52.688 Y42.721 0.00000
G1 X53.825 Y42.889 0.00000
G1 X55.243 Y43.131 0.00000
G1 X57.031 Y43.243 0.00000
G1 X57.934 Y43.244 0.00000
G1 X59.205 Y43.173 0.00000
G1 X60.219 Y43.076 0.00000
G1 X61.193 Y42.889 0.00000
G1 X61.551 Y42.854 0.00000
G1 X62.393 Y42.840 0.00000
G1 X62.675 Y42.878 0.00000
G1 X62.793 Y42.930 0.00000
G1 X62.880 Y43.208 0.00000
G1 X62.973 Y43.400 0.00000
G1 X63.019 Y43.596 0.00000
G1 X63.033 Y43.795 0.00000
G1 X63.031 Y44.601 0.00000
G1 X62.995 Y44.716 0.00000
G1 X62.924 Y44.815 0.00000
G1 X62.834 Y44.896 0.00000
G1 X62.481 Y45.176 0.00000
G1 X62.159 Y45.373 0.00000
G1 X61.887 Y45.608 0.00000
G1 X61.735 Y45.768 0.00000
G1 X61.548 Y46.063 0.00000
G1 X61.348 Y46.504 0.00000
G1 X61.235 Y46.900 0.00000
